status/48/dialog-password.svg

<?xml version="1.0" encoding="UTF-8" standalone="no"?>
<svg
   xmlns:dc="http://purl.org/dc/elements/1.1/"
   xmlns:cc="http://creativecommons.org/ns#"
   xmlns:rdf="http://www.w3.org/1999/02/22-rdf-syntax-ns#"
   xmlns:svg="http://www.w3.org/2000/svg"
   xmlns="http://www.w3.org/2000/svg"
   xmlns:xlink="http://www.w3.org/1999/xlink"
   version="1.1"
   width="48"
   height="48"
   id="svg4493">
  <defs
     id="defs4495">
    <linearGradient
       id="linearGradient4011">
      <stop
         id="stop4013"
         style="stop-color:#ffffff;stop-opacity:1"
         offset="0" />
      <stop
         id="stop4015"
         style="stop-color:#ffffff;stop-opacity:0.23529412"
         offset="0.507761" />
      <stop
         id="stop4017"
         style="stop-color:#ffffff;stop-opacity:0.15686275"
         offset="0.83456558" />
      <stop
         id="stop4019"
         style="stop-color:#ffffff;stop-opacity:0.39215687"
         offset="1" />
    </linearGradient>
    <linearGradient
       id="linearGradient3820-7-2-1">
      <stop
         id="stop3822-2-6-3"
         style="stop-color:#3d3d3d;stop-opacity:1"
         offset="0" />
      <stop
         id="stop3864-8-7-7"
         style="stop-color:#686868;stop-opacity:0.49803922"
         offset="0.5" />
      <stop
         id="stop3824-1-2-5"
         style="stop-color:#686868;stop-opacity:0"
         offset="1" />
    </linearGradient>
    <linearGradient
       id="linearGradient3881">
      <stop
         style="stop-color:#2d2d2d;stop-opacity:1"
         offset="0"
         id="stop3883" />
      <stop
         style="stop-color:#3f3f3f;stop-opacity:1"
         offset="1"
         id="stop3885" />
    </linearGradient>
    <clipPath
       clipPathUnits="userSpaceOnUse"
       id="clipPath3865">
      <path
         d="m 32,24 a 8,8 0 1 1 -16,0 8,8 0 1 1 16,0 z"
         id="path3867"
         style="opacity:0.2;fill:#000000;fill-opacity:1;stroke:none" />
    </clipPath>
    <linearGradient
       id="outerBackgroundGradient-0">
      <stop
         style="stop-color:#c3c3c3;stop-opacity:1;"
         offset="0"
         id="stop3864-8-6-3" />
      <stop
         style="stop-color:#ebebeb;stop-opacity:1;"
         offset="1"
         id="stop3866-9-1-7" />
    </linearGradient>
    <linearGradient
       id="linearGradient3907">
      <stop
         style="stop-color:#ffffff;stop-opacity:1;"
         offset="0"
         id="stop3909" />
      <stop
         style="stop-color:#b6b6b6;stop-opacity:1"
         offset="1"
         id="stop3911" />
    </linearGradient>
    <linearGradient
       xlink:href="#linearGradient4011"
       id="linearGradient3111"
       gradientUnits="userSpaceOnUse"
       gradientTransform="matrix(1.054054,0,0,1.054054,-51.611001,-2.7279009)"
       x1="71.204407"
       y1="6.2375584"
       x2="71.204407"
       y2="44.340794" />
    <radialGradient
       xlink:href="#linearGradient3820-7-2-1"
       id="radialGradient3117"
       gradientUnits="userSpaceOnUse"
       gradientTransform="matrix(0.27083381,0,0,0.08762273,-2.855072,25.187228)"
       cx="99.157013"
       cy="186.17059"
       fx="99.157013"
       fy="186.17059"
       r="62.769119" />
    <linearGradient
       xlink:href="#linearGradient3881"
       id="linearGradient3916"
       gradientUnits="userSpaceOnUse"
       gradientTransform="matrix(0.99999963,0,0,1.0909091,8.89e-6,-2.1818185)"
       x1="24"
       y1="14"
       x2="24"
       y2="33" />
    <linearGradient
       xlink:href="#outerBackgroundGradient-0"
       id="linearGradient3926"
       gradientUnits="userSpaceOnUse"
       gradientTransform="matrix(0,1.0714284,-1.0714284,0,48.642855,-0.64285625)"
       x1="9"
       y1="23"
       x2="37"
       y2="23" />
    <linearGradient
       xlink:href="#linearGradient3907"
       id="linearGradient3932"
       gradientUnits="userSpaceOnUse"
       gradientTransform="matrix(0,1.4696132,-1.4696132,0,57.801105,-9.8011059)"
       x1="9"
       y1="23"
       x2="37"
       y2="23" />
    <linearGradient
       id="linearGradient4011-6">
      <stop
         id="stop4013-5"
         style="stop-color:#ffffff;stop-opacity:1"
         offset="0" />
      <stop
         id="stop4015-4"
         style="stop-color:#ffffff;stop-opacity:0.23529412"
         offset="0.507761" />
      <stop
         id="stop4017-7"
         style="stop-color:#ffffff;stop-opacity:0.15686275"
         offset="0.83456558" />
      <stop
         id="stop4019-0"
         style="stop-color:#ffffff;stop-opacity:0.39215687"
         offset="1" />
    </linearGradient>
    <linearGradient
       y2="44.340794"
       x2="71.204407"
       y1="6.2375584"
       x1="71.204407"
       gradientTransform="matrix(0.83783779,0,0,-0.83783779,-36.101051,45.245252)"
       gradientUnits="userSpaceOnUse"
       id="linearGradient3953"
       xlink:href="#linearGradient4011-6" />
    <linearGradient
       id="linearGradient4011-6-9">
      <stop
         id="stop4013-5-4"
         style="stop-color:#ffffff;stop-opacity:1"
         offset="0" />
      <stop
         id="stop4015-4-8"
         style="stop-color:#ffffff;stop-opacity:0.23529412"
         offset="0.507761" />
      <stop
         id="stop4017-7-8"
         style="stop-color:#ffffff;stop-opacity:0.15686275"
         offset="0.83456558" />
      <stop
         id="stop4019-0-4"
         style="stop-color:#ffffff;stop-opacity:0.39215687"
         offset="1" />
    </linearGradient>
    <linearGradient
       y2="44.340794"
       x2="71.204407"
       y1="6.2375584"
       x1="71.204407"
       gradientTransform="matrix(0.51351345,0,0,-0.51351345,-12.836126,37.021283)"
       gradientUnits="userSpaceOnUse"
       id="linearGradient3993"
       xlink:href="#linearGradient4011-6-9" />
  </defs>
  <metadata
     id="metadata4498">
    <rdf:RDF>
      <cc:Work
         rdf:about="">
        <dc:format>image/svg+xml</dc:format>
        <dc:type
           rdf:resource="http://purl.org/dc/dcmitype/StillImage" />
        <dc:title />
      </cc:Work>
    </rdf:RDF>
  </metadata>
  <path
     style="fill:url(#radialGradient3117);fill-opacity:1;stroke:none"
     id="path3818-0-5"
     d="m 40.999999,41.499999 a 17,5.4999999 0 1 1 -33.999999,0 17,5.4999999 0 1 1 33.999999,0 z" />
  <path
     style="fill:url(#linearGradient3932);fill-opacity:1;fill-rule:nonzero;stroke:none"
     id="path3902"
     d="m 24.000725,3.4254142 c -11.363387,0 -20.575311,9.2122348 -20.575311,20.5743258 0,11.363132 9.212022,20.574844 20.575311,20.574844 11.362877,0 20.573861,-9.211712 20.573861,-20.574844 0,-11.362091 -9.210984,-20.5743258 -20.573861,-20.5743258 l 0,0 z" />
  <path
     style="fill:url(#linearGradient3926);fill-opacity:1;fill-rule:nonzero;stroke:none"
     id="path3824"
     d="m 24.000535,9.0000007 c -8.284542,0 -15.0005352,6.7162233 -15.0005352,14.9998103 0,8.284345 6.7160672,15.000187 15.0005352,15.000187 C 32.284689,38.999998 39,32.284156 39,23.999811 39,15.716224 32.284689,9.0000007 24.000535,9.0000007 l 0,0 z" />
  <path
     transform="matrix(1.125,0,0,1.125,-3.0000002,-3.000001)"
     style="opacity:0.1;fill:#000000;fill-opacity:1;stroke:none"
     id="path3857"
     d="m 32,24 a 8,8 0 1 1 -16,0 8,8 0 1 1 16,0 z" />
  <path
     transform="matrix(1.1249893,0,0,1.1249893,-2.9997434,-2.9997442)"
     d="m 32,24 a 8,8 0 1 1 -16,0 8,8 0 1 1 16,0 z"
     id="path3859"
     style="opacity:0.1;fill:none;stroke:#000000;stroke-width:1.77779472;stroke-miterlimit:4;stroke-opacity:1;stroke-dasharray:none"
     clip-path="url(#clipPath3865)" />
  <path
     style="opacity:1;color:#000000;fill:none;stroke:url(#linearGradient3111);stroke-width:1;stroke-linecap:round;stroke-linejoin:round;stroke-miterlimit:4;stroke-opacity:1;stroke-dasharray:none;stroke-dashoffset:0;marker:none;visibility:visible;display:inline;overflow:visible;enable-background:accumulate"
     id="path8655"
     d="m 43.5,23.999308 c 0,10.7699 -8.73109,19.50069 -19.499753,19.50069 -10.769649,0 -19.5002474,-8.730889 -19.5002474,-19.50069 0,-10.769402 8.7305984,-19.4993078 19.5002474,-19.4993078 C 34.76891,4.5000002 43.5,13.229906 43.5,23.999308 l 0,0 z" />
  <path
     style="opacity:0.29999999999999999;color:#000000;fill:none;stroke:#000000;stroke-width:1;stroke-linecap:round;stroke-linejoin:round;stroke-miterlimit:4;stroke-opacity:1;stroke-dasharray:none;stroke-dashoffset:0;marker:none;visibility:visible;display:inline;overflow:visible;enable-background:accumulate"
     id="path2555-6"
     d="m 24.000003,3.499998 c -11.311193,0 -20.5000034,9.188806 -20.5000034,20.5 0,11.311194 9.1888104,20.500005 20.5000034,20.500002 11.311188,0 20.500008,-9.188808 20.499997,-20.500002 0,-11.311194 -9.188809,-20.5 -20.499997,-20.5 z" />
  <path
     style="color:#000000;fill:none;stroke:url(#linearGradient3953);stroke-width:1;stroke-linecap:round;stroke-linejoin:round;stroke-miterlimit:4;stroke-opacity:1;stroke-dasharray:none;stroke-dashoffset:0;marker:none;visibility:visible;display:inline;overflow:visible;enable-background:accumulate"
     id="path8655-1"
     d="m 39.5,24.000548 c 0,-8.560689 -6.940097,-15.5005479 -15.499803,-15.5005479 -8.560491,0 -15.5001972,6.9399369 -15.5001972,15.5005479 0,8.560294 6.9397062,15.49945 15.5001972,15.49945 8.559706,0 15.499803,-6.939156 15.499803,-15.49945 l 0,0 z" />
  <path
     style="color:#000000;fill:none;stroke:url(#linearGradient3993);stroke-width:1;stroke-linecap:round;stroke-linejoin:round;stroke-miterlimit:4;stroke-opacity:1;stroke-dasharray:none;stroke-dashoffset:0;marker:none;visibility:visible;display:inline;overflow:visible;enable-background:accumulate;opacity:0.5"
     id="path8655-1-6"
     d="M 33.499999,24.000336 C 33.499999,18.753463 29.246392,14.5 24.000121,14.5 18.753369,14.5 14.5,18.75351 14.5,24.000336 c 0,5.246631 4.253369,9.499662 9.500121,9.499662 5.246271,0 9.499878,-4.253031 9.499878,-9.499662 l 0,0 z" />
  <path
     style="fill:#ffffff;fill-opacity:1;stroke:none;opacity:0.5"
     d="m 21,13 6,0 0,13.000001 -2.000001,2 2.000001,2 L 27,37 l -6,0 0,-12.999999 1.999999,-2 -1.999999,-2 z"
     id="rect3030-5" />
  <path
     style="fill:url(#linearGradient3916);fill-opacity:1;stroke:none"
     d="m 21,11.999999 6,0 L 27,25 24.999999,27 27,29 l 0,6.999999 -6,0 L 21,23 22.999999,21 21,19 z"
     id="rect3030" />
  <path
     style="opacity:0.29999999999999999;fill:none;stroke:#000000;stroke-opacity:1"
     d="m 21.5,12.5 5,0 0,12.27541 L 24.237978,27 26.5,29.212112 26.5,35.5 l -5,0 0,-12.27541 L 23.774498,21 21.5,18.787888 z"
     id="rect3030-2" />
</svg>

<svg xmlns="http://www.w3.org/2000/svg" xmlns:xlink="http://www.w3.org/1999/xlink" width="48" height="48"><defs><linearGradient id="a"><stop offset="0" stop-color="#fff"/><stop offset=".508" stop-color="#fff" stop-opacity=".235"/><stop offset=".835" stop-color="#fff" stop-opacity=".157"/><stop offset="1" stop-color="#fff" stop-opacity=".392"/></linearGradient><linearGradient id="b"><stop offset="0" stop-color="#3d3d3d"/><stop offset=".5" stop-color="#686868" stop-opacity=".498"/><stop offset="1" stop-color="#686868" stop-opacity="0"/></linearGradient><linearGradient id="c"><stop offset="0" stop-color="#2d2d2d"/><stop offset="1" stop-color="#3f3f3f"/></linearGradient><clipPath id="k"><path d="M32 24a8 8 0 1 1-16 0 8 8 0 1 1 16 0z" opacity=".2"/></clipPath><linearGradient id="d"><stop offset="0" stop-color="#c3c3c3"/><stop offset="1" stop-color="#ebebeb"/></linearGradient><linearGradient id="e"><stop offset="0" stop-color="#fff"/><stop offset="1" stop-color="#b6b6b6"/></linearGradient><linearGradient xlink:href="#a" id="l" gradientUnits="userSpaceOnUse" gradientTransform="translate(-51.61 -2.728) scale(1.05405)" x1="71.204" y1="6.238" x2="71.204" y2="44.341"/><radialGradient xlink:href="#b" id="h" gradientUnits="userSpaceOnUse" gradientTransform="matrix(.27083 0 0 .08762 -2.855 25.187)" cx="99.157" cy="186.171" fx="99.157" fy="186.171" r="62.769"/><linearGradient xlink:href="#c" id="o" gradientUnits="userSpaceOnUse" gradientTransform="matrix(1 0 0 1.1 0 -2.182)" x1="24" y1="14" x2="24" y2="33"/><linearGradient xlink:href="#d" id="j" gradientUnits="userSpaceOnUse" gradientTransform="rotate(90 24.643 24) scale(1.07143)" x1="9" y1="23" x2="37" y2="23"/><linearGradient xlink:href="#e" id="i" gradientUnits="userSpaceOnUse" gradientTransform="rotate(90 33.8 24) scale(1.4696)" x1="9" y1="23" x2="37" y2="23"/><linearGradient id="f"><stop offset="0" stop-color="#fff"/><stop offset=".508" stop-color="#fff" stop-opacity=".235"/><stop offset=".835" stop-color="#fff" stop-opacity=".157"/><stop offset="1" stop-color="#fff" stop-opacity=".392"/></linearGradient><linearGradient y2="44.341" x2="71.204" y1="6.238" x1="71.204" gradientTransform="matrix(.83784 0 0 -.83784 -36.1 45.245)" gradientUnits="userSpaceOnUse" id="m" xlink:href="#f"/><linearGradient id="g"><stop offset="0" stop-color="#fff"/><stop offset=".508" stop-color="#fff" stop-opacity=".235"/><stop offset=".835" stop-color="#fff" stop-opacity=".157"/><stop offset="1" stop-color="#fff" stop-opacity=".392"/></linearGradient><linearGradient y2="44.341" x2="71.204" y1="6.238" x1="71.204" gradientTransform="matrix(.5135 0 0 -.5135 -12.836 37.02)" gradientUnits="userSpaceOnUse" id="n" xlink:href="#g"/></defs><path d="M41 41.5a17 5.5 0 1 1-34 0 17 5.5 0 1 1 34 0z" fill="url(#h)"/><path d="M24 3.425C12.638 3.425 3.426 12.638 3.426 24c0 11.363 9.212 20.575 20.576 20.575S44.576 35.363 44.576 24c0-11.362-9.21-20.575-20.574-20.575z" fill="url(#i)"/><path d="M24 9C15.717 9 9 15.716 9 24c0 8.284 6.716 15 15 15 8.285 0 15-6.716 15-15 0-8.284-6.715-15-15-15z" fill="url(#j)"/><path d="M33 24a9 9 0 1 1-18 0 9 9 0 1 1 18 0z" opacity=".1"/><path transform="translate(-3 -3) scale(1.125)" d="M32 24a8 8 0 1 1-16 0 8 8 0 1 1 16 0z" clip-path="url(#k)" opacity=".1" fill="none" stroke="#000" stroke-width="1.778"/><path d="M43.5 24c0 10.77-8.73 19.5-19.5 19.5S4.5 34.77 4.5 24 13.23 4.5 24 4.5 43.5 13.23 43.5 24z" color="#000" fill="none" stroke="url(#l)" stroke-linecap="round" stroke-linejoin="round" overflow="visible"/><path d="M24 3.5C12.69 3.5 3.5 12.69 3.5 24S12.69 44.5 24 44.5 44.5 35.31 44.5 24 35.31 3.5 24 3.5z" opacity=".3" color="#000" fill="none" stroke="#000" stroke-linecap="round" stroke-linejoin="round" overflow="visible"/><path d="M39.5 24c0-8.56-6.94-15.5-15.5-15.5-8.56 0-15.5 6.94-15.5 15.5 0 8.56 6.94 15.5 15.5 15.5 8.56 0 15.5-6.94 15.5-15.5z" color="#000" fill="none" stroke="url(#m)" stroke-linecap="round" stroke-linejoin="round" overflow="visible"/><path d="M33.5 24a9.5 9.5 0 1 0-19 0 9.5 9.5 0 0 0 19 0z" color="#000" fill="none" stroke="url(#n)" stroke-linecap="round" stroke-linejoin="round" overflow="visible" opacity=".5"/><path d="M21 13h6v13l-2 2 2 2v7h-6V24l2-2-2-2z" fill="#fff" opacity=".5"/><path d="M21 12h6v13l-2 2 2 2v7h-6V23l2-2-2-2z" fill="url(#o)"/><path d="M21.5 12.5h5v12.275L24.238 27l2.262 2.212V35.5h-5V23.225L23.774 21 21.5 18.788z" opacity=".3" fill="none" stroke="#000"/></svg>
